!! 00000] TT[WS
!!!OTL: Gai yangyan
!!!ARE: Asia, China, Shanxi Dinxiang
!! Ethnic Group: Han
!! WI, 290 (1)
!!!SCT: J0350
!!!YEM: Copyright 1995, estate of Helmut Schaffrath.
**kern
*ICvox
*Ivox
*M2/4
*k[f#]
*G:
{4ee
8dd
8ee
=1
8a
8a
8g
8a
=2
8ee
8ee
8dd
8ee
=3
2a}
=4
{8ee
8ee
8ee
8gg
=5
8dd
4dd
8b
=6
8.a
16a
8a
8g
=7
4e
4a}
=8
{8e
8e
8e
8g
=9
8a
8dd
8f#
8e
=10
[2d
=11
2d]}
==
!!!AGN: Xiaodiao. Xinminge, Xuanchuan
!! Neue Text. Politische Liede
!!!ONB: ESAC (Essen Associative Code) Database: CHINA
!!!AMT: simple duple
!!!AIN: vox
!!!EED: Helmut Schaffrath
!!!EEV: 1.0
*-
!!!ONB: Tied note syntax fixed by Craig Sapp, 2004/05/03/
